X: 217
T: Dong sinu
L: 1/8
M: 4/4
K: C
d g e g d c d e [I:setbarnb 1]| 
ge2d2<c2A | 
d g e g d e d c | 
dA2GE4 | 
GG2Ac2e g | 
ed2GA4 | 
ed2c d g e d | 
dG2A2<c2A | 
G A G ED4 |]

@@@ Tune index: 9091
